X: 60
T: Terrible dame
N: Derived from Bus3056-Terrible_dame.krn
C: Antoine Busnoys
%%abc-version 2.0
%%abcx-abcm2ps-target-version 5.9.1 (29 Sep 2008)
%%abc-creator hum2abc beta
%%abcx-conversion-date 2019/02/16 20:26:07
%%abc-edited-by Jesse Rodin
%%abc-edited-by Chris Gage 04-15-2015
%%abcx-initial-encoding-date 2015/11/01/
%%humdrum-veritas 3901726760
%%humdrum-veritas-data 663749725
%%linebreak <none>
%%barnumbers 0
L: 1/4
M: 2/1
Q: 1/2=120
%%staves [1 2 3 4]
V: 1 clef=treble
V: 2 clef=treble-8
V: 3 clef=treble-8
V: 4 clef=bass
K: C
[V:1] z8 | 
[V:2] [G8c8] | 
[V:3] z8 | 
[V:4] C,8 | 
[V:1] z8 | 
[V:2] [G4c4][A4d4] | 
[V:3] z8 | 
[V:4] E,4F,4 | 
[V:1] z8 | 
[V:2] [B6e6][Ad][Gc] | 
[V:3] z8 | 
[V:4] G,6F,E, | 
[V:1] z8 | 
[V:2] [c2f2][B4e4][Ad][Gc] | 
[V:3] z8 | 
[V:4] A,2G,4F,E, | 
[V:1] z8 | 
[V:2] [F2B2][E2A2][F4B4] | 
[V:3] z8 | 
[V:4] D,2C,2D,4 | 
[V:1] z4e4 | 
[V:2] [G4c4]z4 | 
[V:3] z4g4 | 
[V:4] C,4z4 | 
[V:1] f6ed | 
[V:2] z8 | 
[V:3] a6gf | 
[V:4] z8 | 
[V:1] f3ec2e2- | 
[V:2] z8 | 
[V:3] a3ge2g2- | 
[V:4] z8 | 
[V:1] e2dc!fermata!B4 | 
[V:2] z8 | 
[V:3] g2fe!fermata!d4 | 
[V:4] z8 | 
[V:1] z8 | 
[V:2] [B6e6][Ad][Gc] | 
[V:3] z8 | 
[V:4] G,6F,E, | 
[V:1] z8 | 
[V:2] [B2e2][A3d3][Gc][FB][EA] | 
[V:3] z8 | 
[V:4] G,2F,3E,D,C, | 
[V:1] z8 | 
[V:2] [D2G2][G4c4][F2B2] | 
[V:3] z8 | 
[V:4] B,,2E,4D,2 | 
[V:1] z8 | 
[V:2] [G2c2][A2d2]!fermata![F4B4] | 
[V:3] z8 | 
[V:4] E,2F,2!fermata!D,4 | 
[V:1] c6e2- | 
[V:2] z8 | 
[V:3] c6g2- | 
[V:4] z8 | 
[V:1] edB2c2d2- | 
[V:2] z8 | 
[V:3] gfd2e2f2- | 
[V:4] z8 | 
[V:1] dcBAB4 | 
[V:2] z4g4 | 
[V:3] fedcd4 | 
[V:4] z4G,4 | 
[V:1] !fermata!c8 | 
[V:2] e4!fermata!f4 | 
[V:3] !fermata!c8 | 
[V:4] A,4!fermata!F,4 | 
[V:1] z8 | 
[V:2] z8 | 
[V:3] z8 | 
[V:4] z8 | 
[V:1] c4A2G2 | 
[V:2] g4f2d2 | 
[V:3] c6B2 | 
[V:4] C,2E,2F,2G,2- | 
[V:1] c4B2G2- | 
[V:2] e2f2d2z2 | 
[V:3] A4G4 | 
[V:4] G,2F,2G,2E,2- | 
[V:1] GEA3F_B2- | 
[V:2] e2c2f2d2 | 
[V:3] c4d4 | 
[V:4] E,C,F,3D,G,2- | 
[V:1] BGc3Ad2- | 
[V:2] g2e2a2f2 | 
[V:3] e4f4- | 
[V:4] G,E,A,3F,_B,2- | 
[V:1] dc_BAG2c2- | 
[V:2] z2d2e2c2 | 
[V:3] f4e4 | 
[V:4] B,A,_B,2CB,A,G, | 
[V:1] c2BAB4 | 
[V:2] f2a2g4 | 
[V:3] d8 | 
[V:4] F,3E,G,4 | 
[V:1] c6e2- | 
[V:2] e6c2- | 
[V:3] z4c4 | 
[V:4] C,8 | 
[V:1] e2dce3d | 
[V:2] c2BAc3B | 
[V:3] g4g4 | 
[V:4] z8 | 
[V:1] B8 | 
[V:2] (3:2:2G8E4 | 
[V:3] g4g4 | 
[V:4] z8 | 
[V:1] z4c4 | 
[V:2] (3:2:2D4F8 | 
[V:3] f4f4 | 
[V:4] z8 | 
[V:1] g4g4 | 
[V:2] C4z4 | 
[V:3] e3d/c/B2c2- | 
[V:4] C4D2E2- | 
[V:1] g4g4 | 
[V:2] z8 | 
[V:3] cde3de2 | 
[V:4] EDC3B,C2 | 
[V:1] f4f4 | 
[V:2] z8 | 
[V:3] fedcd4 | 
[V:4] DCB,A,B,4 | 
[V:1] e3d/c/B2c2- | 
[V:2] c4d2e2- | 
[V:3] z8 | 
[V:4] z8 | 
[V:1] cde3de2 | 
[V:2] edc3Bc2 | 
[V:3] z8 | 
[V:4] z8 | 
[V:1] fedcd4 | 
[V:2] dcBAB4 | 
[V:3] z8 | 
[V:4] z4G,4 | 
[V:1] z4c4 | 
[V:2] c2f3ga2- | 
[V:3] z8 | 
[V:4] A,4A,4 | 
[V:1] c4c4 | 
[V:2] age2f2ef | 
[V:3] z8 | 
[V:4] A,4A,4 | 
[V:1] B4G4 | 
[V:2] g4z4 | 
[V:3] z4c4 | 
[V:4] G,4E,4 | 
[V:1] A4A4 | 
[V:2] z8 | 
[V:3] c4c4 | 
[V:4] F,6E,F, | 
[V:1] G2d2e2g2 | 
[V:2] z4g4 | 
[V:3] B4G4 | 
[V:4] G,4z4 | 
[V:1] f2e4dc | 
[V:2] c3de3f | 
[V:3] A4A4 | 
[V:4] z8 | 
[V:1] B8 | 
[V:2] g2g3fed | 
[V:3] G2d2e2g2 | 
[V:4] G,8 | 
[V:1] z8 | 
[V:2] c3Bc4 | 
[V:3] f2e4dc | 
[V:4] A,4A,4 | 
[V:1] G4A4 | 
[V:2] d4z4 | 
[V:3] B4z4 | 
[V:4] G,2B,2A,2C2 | 
[V:1] B4c4 | 
[V:2] z8 | 
[V:3] G4A4 | 
[V:4] B,2A,G,^F,3E, | 
[V:1] z4c4 | 
[V:2] d4c2e2 | 
[V:3] B4c4 | 
[V:4] G,4z4 | 
[V:1] d4e4 | 
[V:2] d2f2e2dc | 
[V:3] z4c4 | 
[V:4] z8 | 
[V:1] f4e2c2- | 
[V:2] B3Ac4 | 
[V:3] d4e4 | 
[V:4] z8 | 
[V:1] cBA2G2A2- | 
[V:2] F4z4 | 
[V:3] f4e2c2- | 
[V:4] z4C4 | 
[V:1] A2c2B2A2 | 
[V:2] c3de2f2 | 
[V:3] cBA2G2A2- | 
[V:4] F,4G,2F,2 | 
[V:1] e4d2c2 | 
[V:2] z2c2d2e2 | 
[V:3] A2c2B2A2 | 
[V:4] A,4B,2C2 | 
[V:1] z2g2f2e2- | 
[V:2] c4z4 | 
[V:3] e4d2c2 | 
[V:4] z2C,2D,2E,2 | 
[V:1] ece2d2c2 | 
[V:2] z2c2d2e2 | 
[V:3] z2g2f2e2- | 
[V:4] C,4z4 | 
[V:1] g4f2g2- | 
[V:2] c4z4 | 
[V:3] ece2d2c2 | 
[V:4] z2C,2D,2E,2 | 
[V:1] g2fed2e2- | 
[V:2] c4d2c2 | 
[V:3] g4f2g2- | 
[V:4] C,4z2C,2 | 
[V:1] e2dcB3A | 
[V:2] g2a2g4 | 
[V:3] g2fed4 | 
[V:4] E,2F,2G,4 | 
[V:1] c6B2 | 
[V:2] e6f2 | 
[V:3] c6d2 | 
[V:4] A,6G,F, | 
[V:1] c4d4 | 
[V:2] g4a4 | 
[V:3] e4f4 | 
[V:4] E,4D,4 | 
[V:1] !fermata!B8 | 
[V:2] !fermata!g8 | 
[V:3] !fermata!d8 | 
[V:4] !fermata!G,8 | 
[V:1] c8 |]  
[V:2] g8 |]  
[V:3] c8 |]  
[V:4] C,8 |]  



